X:4707
T:Eight Step Waltz
M:4/4
L:1/8
Q:220
C:Dave Shepherd
S:Blowzabella
K:Dm
D2 D2 F2 EF| G2 A2 F2 D2| D2 D2 F2 EF| G2 E2 D4:|!
 A2 A2 A2 GA| B2 G2 A2 F2| A2 A2 A2 GA |B2 G2  F4|!
A2 A2 A2 GA| B2 G2 A2 F2| A2 B2 c2 dc |BAGF E4||!
